packages/sources/icons/src/vitamix/logo_decathlon_reversed.svg

<svg width="200" height="50" viewBox="0 0 200 50" fill="none" xmlns="http://www.w3.org/2000/svg">
<path d="M0 50H200V0H0V50Z" fill="white"/>
<path d="M63.815 38.2511C63.299 38.2511 62.77 38.225 62.244 38.174C59.2348 37.8655 56.4092 36.5812 54.198 34.517C51.5644 31.995 50.1168 28.4792 50.211 24.834C50.3192 21.9503 51.3129 19.17 53.057 16.871C54.1718 15.4002 55.6 14.1961 57.238 13.346C59.2746 12.3267 61.5186 11.7902 63.796 11.778C63.896 11.778 64.004 11.778 64.106 11.778C68.1292 11.8068 71.9377 13.5977 74.526 16.678L74.586 16.755L71.225 22.141L71.001 21.875L70.844 21.701L70.538 21.379L70.288 21.132C69.125 20.014 66.745 18.137 63.871 18.137H63.738C60.0158 18.2013 57.0301 21.2333 57.023 24.956C57.023 28.056 58.887 31.697 64.139 31.778H64.216C67.27 31.778 69.266 29.535 70.183 28.198L70.383 27.898C70.494 27.725 70.752 27.298 71.174 26.598L79.675 12.287H86.553V37.677H80.223V33.868L75.18 33.846H74.507L74.323 33.854L74.291 33.86L74.155 34.01L73.993 34.177L73.764 34.399L73.572 34.576L73.35 34.776L73.1 34.986C70.4717 37.1082 67.1931 38.2612 63.815 38.2511ZM80.353 22.806L76.96 28.556H80.353V22.806ZM151.769 38.239C148.169 38.322 144.699 36.8956 142.198 34.305V37.694H127.988V12.291H134.526V32.08H140.434C139.075 29.8728 138.379 27.3223 138.426 24.731C138.421 23.0097 138.765 21.3053 139.438 19.721C140.12 18.1304 141.115 16.693 142.363 15.494C144.879 13.0275 148.284 11.6799 151.807 11.756C155.269 11.7561 158.593 13.109 161.071 15.526C162.634 17.0195 163.803 18.8777 164.471 20.934V12.286H170.413L180.291 26.396V12.286H186.878V37.694H181.091L171.058 23.539V37.694H164.475V28.985C163.869 30.9698 162.789 32.7772 161.328 34.251C158.817 36.8254 155.365 38.2655 151.769 38.239ZM151.843 18.077C150.018 18.0618 148.26 18.7663 146.95 20.038C145.665 21.2888 144.943 23.0078 144.95 24.801C144.942 26.6962 145.686 28.5172 147.018 29.865C148.267 31.1496 149.975 31.8849 151.767 31.909C153.563 31.922 155.286 31.2027 156.54 29.917C157.844 28.5363 158.555 26.6997 158.52 24.801C158.528 21.1027 155.541 18.0956 151.843 18.078V18.077ZM112.638 37.695H106.068V12.284H112.638V21.932H119.404V12.284H125.979V37.693H119.404V27.972H112.638V37.694V37.695ZM99.606 37.695H93.038V18.35H87.926V12.276H104.712V18.35H99.612V37.693L99.606 37.695ZM22.123 37.695H12.038V12.287H21.226C25.44 12.287 28.436 12.787 31.276 15.322C33.3402 17.1998 34.6659 19.7532 35.014 22.522V12.287H49.638V17.876L41.592 17.885V22.036L48.559 22.03V27.494L41.592 27.501V32.106H49.638V37.677H35.013V27.548C34.6082 30.2348 33.3004 32.7037 31.305 34.548C28.438 37.193 25.865 37.694 22.126 37.694L22.123 37.695ZM18.615 17.75V32.114H21.256C23.809 32.114 25.638 31.548 26.848 30.384C28.058 29.22 28.666 27.414 28.666 24.904C28.666 20.291 26.024 17.75 21.226 17.75H18.615Z" fill="#0082C3"/>
</svg>

<svg width="200" height="50" fill="none" xmlns="http://www.w3.org/2000/svg"><path d="M0 50h200V0H0v50z" fill="#fff"/><path d="M63.815 38.251c-.516 0-1.045-.026-1.571-.077a13.863 13.863 0 0 1-8.046-3.657 12.944 12.944 0 0 1-3.987-9.683 14.046 14.046 0 0 1 2.846-7.963 12.432 12.432 0 0 1 4.181-3.525 14.83 14.83 0 0 1 6.558-1.568h.31a13.739 13.739 0 0 1 10.42 4.9l.06.077-3.361 5.386-.224-.266-.157-.174-.306-.322-.25-.247c-1.163-1.118-3.543-2.995-6.417-2.995h-.133a6.833 6.833 0 0 0-6.715 6.819c0 3.1 1.864 6.741 7.116 6.822h.077c3.054 0 5.05-2.243 5.967-3.58l.2-.3c.111-.173.369-.6.791-1.3l8.501-14.311h6.878v25.39h-6.33v-3.809l-5.043-.022h-.673l-.184.008-.032.006-.136.15-.162.167-.229.222-.192.177-.222.2-.25.21a14.71 14.71 0 0 1-9.285 3.265zm16.538-15.445-3.393 5.75h3.393v-5.75zm71.416 15.433a12.89 12.89 0 0 1-9.571-3.934v3.389h-14.21V12.291h6.538V32.08h5.908a13.547 13.547 0 0 1-2.008-7.349 12.719 12.719 0 0 1 1.012-5.01 12.926 12.926 0 0 1 2.925-4.227 13.087 13.087 0 0 1 9.444-3.738c3.462 0 6.786 1.353 9.264 3.77a13.064 13.064 0 0 1 3.4 5.408v-8.648h5.942l9.878 14.11v-14.11h6.587v25.408h-5.787l-10.033-14.155v14.155h-6.583v-8.709a12.781 12.781 0 0 1-3.147 5.266 13.217 13.217 0 0 1-9.559 3.988zm.074-20.162a6.942 6.942 0 0 0-4.893 1.961 6.611 6.611 0 0 0-2 4.763 7.162 7.162 0 0 0 2.068 5.064 6.75 6.75 0 0 0 4.749 2.044 6.6 6.6 0 0 0 4.773-1.992 7.256 7.256 0 0 0 1.98-5.116 6.709 6.709 0 0 0-6.677-6.723v-.001zm-39.205 19.618h-6.57V12.284h6.57v9.648h6.766v-9.648h6.575v25.409h-6.575v-9.721h-6.766v9.723zm-13.032 0h-6.568V18.35h-5.112v-6.074h16.786v6.074h-5.1v19.343l-.006.002zm-77.483 0H12.038V12.287h9.188c4.214 0 7.21.5 10.05 3.035a11.708 11.708 0 0 1 3.738 7.2V12.287h14.624v5.589l-8.046.009v4.151l6.967-.006v5.464l-6.967.007v4.605h8.046v5.571H35.013V27.548a11.958 11.958 0 0 1-3.708 7c-2.867 2.645-5.44 3.146-9.179 3.146l-.003.001zM18.615 17.75v14.364h2.641c2.553 0 4.382-.566 5.592-1.73 1.21-1.164 1.818-2.97 1.818-5.48 0-4.613-2.642-7.154-7.44-7.154h-2.611z" fill="#0082C3"/></svg>
